;FLAVOR:Marlin
;TIME:1390
;Filament used: 0.548157m
;Layer height: 0.2
;MINX:25.608
;MINY:129.335
;MINZ:0.2
;MAXX:41.073
;MAXY:169.8
;MAXZ:32
;Generated with Cura_SteamEngine 4.11.0
M140 S55
M105
M190 S55
M104 S195
M105
M109 S195
M82 ;absolute extrusion mode
M201 X500.00 Y500.00 Z100.00 E5000.00 ;Setup machine max acceleration
M203 X500.00 Y500.00 Z10.00 E50.00 ;Setup machine max feedrate
M204 P500.00 R1000.00 T500.00 ;Setup Print/Retract/Travel acceleration
M205 X8.00 Y8.00 Z0.40 E5.00 ;Setup Jerk
M220 S100 ;Reset Feedrate
M221 S100 ;Reset Flowrate

G28 ;Home

G92 E0 ;Reset Extruder
G1 Z2.0 F3000 ;Move Z Axis up
G1 X10.1 Y20 Z0.28 F5000.0 ;Move to start position
G1 X10.1 Y200.0 Z0.28 F1500.0 E15 ;Draw the first line
G1 X10.4 Y200.0 Z0.28 F5000.0 ;Move to side a little
G1 X10.4 Y20 Z0.28 F1500.0 E30 ;Draw the second line
G92 E0 ;Reset Extruder
G1 Z2.0 F3000 ;Move Z Axis up
G92 E0
G92 E0
G1 F2700 E-5.25
;LAYER_COUNT:160
;LAYER:0
M107
;MESH:Retraction.stl
G0 F6000 X40.673 Y169.4 Z0.2
;TYPE:WALL-INNER
G1 F2700 E0
G1 F1200 X26.873 Y169.4 E0.43191
G1 X26.873 Y130.6 E1.64626
G1 X40.673 Y130.6 E2.07817
G1 X40.673 Y169.4 E3.29253
G0 F6000 X41.073 Y169.8
;TYPE:WALL-OUTER
G1 F1200 X26.473 Y169.8 E3.74947
G1 X26.473 Y130.2 E4.98887
G1 X41.073 Y130.2 E5.44581
G1 X41.073 Y169.8 E6.68521
G0 F6000 X40.803 Y169.53
G0 X40.563 Y169.01
G0 X40.283 Y169.01
;TYPE:SKIN
G1 F1200 X27.263 Y169.01 E7.0927
G1 X27.263 Y130.99 E8.28265
G1 X40.283 Y130.99 E8.69014
G1 X40.283 Y169.01 E9.88009
G0 F6000 X40.563 Y169.01
G0 X27.992 Y169.29
G0 X27.992 Y168.848
G1 F1200 X27.423 Y168.278 E9.90529
G0 F6000 X27.423 Y167.713
G1 F1200 X28.558 Y168.848 E9.95553
G0 F6000 X29.124 Y168.848
G1 F1200 X27.423 Y167.147 E10.03082
G0 F6000 X27.423 Y166.581
G1 F1200 X29.689 Y168.848 E10.13114
G0 F6000 X30.255 Y168.848
G1 F1200 X27.423 Y166.015 E10.25651
G0 F6000 X27.423 Y165.45
G1 F1200 X30.821 Y168.848 E10.40691
G0 F6000 X31.387 Y168.848
G1 F1200 X27.423 Y164.884 E10.58236
G0 F6000 X27.423 Y164.318
G1 F1200 X31.952 Y168.848 E10.78285
G0 F6000 X32.518 Y168.848
G1 F1200 X27.423 Y163.753 E11.00836
G0 F6000 X27.423 Y163.187
G1 F1200 X33.084 Y168.848 E11.25893
G0 F6000 X33.649 Y168.848
G1 F1200 X27.423 Y162.621 E11.53452
G0 F6000 X27.423 Y162.056
G1 F1200 X34.215 Y168.848 E11.83515
G0 F6000 X34.781 Y168.848
G1 F1200 X27.423 Y161.49 E12.16083
G0 F6000 X27.423 Y160.924
G1 F1200 X35.346 Y168.848 E12.51154
G0 F6000 X35.912 Y168.848
G1 F1200 X27.423 Y160.359 E12.88727
G0 F6000 X27.423 Y159.793
G1 F1200 X36.478 Y168.848 E13.28806
G0 F6000 X37.043 Y168.848
G1 F1200 X27.423 Y159.227 E13.71388
G0 F6000 X27.423 Y158.662
G1 F1200 X37.609 Y168.848 E14.16473
G0 F6000 X38.175 Y168.848
G1 F1200 X27.423 Y158.096 E14.64064
G0 F6000 X27.423 Y157.53
G1 F1200 X38.74 Y168.848 E15.14157
G0 F6000 X39.306 Y168.848
G1 F1200 X27.423 Y156.964 E15.66755
G0 F6000 X27.423 Y156.399
G1 F1200 X39.872 Y168.848 E16.21857
G0 F6000 X40.123 Y168.533
G1 F1200 X27.423 Y155.833 E16.78069
G0 F6000 X27.423 Y155.267
G1 F1200 X40.123 Y167.968 E17.34284
G0 F6000 X40.123 Y167.402
G1 F1200 X27.423 Y154.702 E17.90496
G0 F6000 X27.423 Y154.136
G1 F1200 X40.123 Y166.836 E18.46709
G0 F6000 X40.123 Y166.271
G1 F1200 X27.423 Y153.57 E19.02923
G0 F6000 X27.423 Y153.005
G1 F1200 X40.123 Y165.705 E19.59136
G0 F6000 X40.123 Y165.139
G1 F1200 X27.423 Y152.439 E20.15348
G0 F6000 X27.423 Y151.873
G1 F1200 X40.123 Y164.574 E20.71563
G0 F6000 X40.123 Y164.008
G1 F1200 X27.423 Y151.308 E21.27775
G0 F6000 X27.423 Y150.742
G1 F1200 X40.123 Y163.442 E21.83988
G0 F6000 X40.123 Y162.877
G1 F1200 X27.423 Y150.176 E22.40202
G0 F6000 X27.423 Y149.611
G1 F1200 X40.123 Y162.311 E22.96415
G0 F6000 X40.123 Y161.745
G1 F1200 X27.423 Y149.045 E23.52627
G0 F6000 X27.423 Y148.479
G1 F1200 X40.123 Y161.18 E24.08842
G0 F6000 X40.123 Y160.614
G1 F1200 X27.423 Y147.914 E24.65054
G0 F6000 X27.423 Y147.348
G1 F1200 X40.123 Y160.048 E25.21267
G0 F6000 X40.123 Y159.482
G1 F1200 X27.423 Y146.782 E25.77479
G0 F6000 X27.423 Y146.216
G1 F1200 X40.123 Y158.917 E26.33694
G0 F6000 X40.123 Y158.351
G1 F1200 X27.423 Y145.651 E26.89906
G0 F6000 X27.423 Y145.085
G1 F1200 X40.123 Y157.785 E27.46119
G0 F6000 X40.123 Y157.22
G1 F1200 X27.423 Y144.519 E28.02333
G0 F6000 X27.423 Y143.954
G1 F1200 X40.123 Y156.654 E28.58546
G0 F6000 X40.123 Y156.088
G1 F1200 X27.423 Y143.388 E29.14758
G0 F6000 X27.423 Y142.822
G1 F1200 X40.123 Y155.523 E29.70973
G0 F6000 X40.123 Y154.957
G1 F1200 X27.423 Y142.257 E30.27185
G0 F6000 X27.423 Y141.691
G1 F1200 X40.123 Y154.391 E30.83398
G0 F6000 X40.123 Y153.826
G1 F1200 X27.423 Y141.125 E31.39612
G0 F6000 X27.423 Y140.56
G1 F1200 X40.123 Y153.26 E31.95825
G0 F6000 X40.123 Y152.694
G1 F1200 X27.423 Y139.994 E32.52037
G0 F6000 X27.423 Y139.428
G1 F1200 X40.123 Y152.129 E33.08252
G0 F6000 X40.123 Y151.563
G1 F1200 X27.423 Y138.863 E33.64464
G0 F6000 X27.423 Y138.297
G1 F1200 X40.123 Y150.997 E34.20677
G0 F6000 X40.123 Y150.432
G1 F1200 X27.423 Y137.731 E34.76891
G0 F6000 X27.423 Y137.165
G1 F1200 X40.123 Y149.866 E35.33106
G0 F6000 X40.123 Y149.3
G1 F1200 X27.423 Y136.6 E35.89318
G0 F6000 X27.423 Y136.034
G1 F1200 X40.123 Y148.734 E36.45531
G0 F6000 X40.123 Y148.169
G1 F1200 X27.423 Y135.468 E37.01745
G0 F6000 X27.423 Y134.903
G1 F1200 X40.123 Y147.603 E37.57958
G0 F6000 X40.123 Y147.037
G1 F1200 X27.423 Y134.337 E38.1417
G0 F6000 X27.423 Y133.771
G1 F1200 X40.123 Y146.472 E38.70385
G0 F6000 X40.123 Y145.906
G1 F1200 X27.423 Y133.206 E39.26597
G0 F6000 X27.423 Y132.64
G1 F1200 X40.123 Y145.34 E39.8281
G0 F6000 X40.123 Y144.775
G1 F1200 X27.423 Y132.074 E40.39024
G0 F6000 X27.423 Y131.509
G1 F1200 X40.123 Y144.209 E40.95237
G0 F6000 X40.123 Y143.643
G1 F1200 X27.629 Y131.149 E41.50537
G0 F6000 X28.195 Y131.149
G1 F1200 X40.123 Y143.078 E42.03335
G0 F6000 X40.123 Y142.512
G1 F1200 X28.76 Y131.149 E42.5363
G0 F6000 X29.326 Y131.149
G1 F1200 X40.123 Y141.946 E43.01419
G0 F6000 X40.123 Y141.381
G1 F1200 X29.892 Y131.149 E43.46706
G0 F6000 X30.457 Y131.149
G1 F1200 X40.123 Y140.815 E43.89489
G0 F6000 X40.123 Y140.249
G1 F1200 X31.023 Y131.149 E44.29767
G0 F6000 X31.589 Y131.149
G1 F1200 X40.123 Y139.683 E44.6754
G0 F6000 X40.123 Y139.118
G1 F1200 X32.154 Y131.149 E45.02812
G0 F6000 X32.72 Y131.149
G1 F1200 X40.123 Y138.552 E45.35579
G0 F6000 X40.123 Y137.986
G1 F1200 X33.286 Y131.149 E45.65841
G0 F6000 X33.852 Y131.149
G1 F1200 X40.123 Y137.421 E45.936
G0 F6000 X40.123 Y136.855
G1 F1200 X34.417 Y131.149 E46.18856
G0 F6000 X34.983 Y131.149
G1 F1200 X40.123 Y136.289 E46.41606
G0 F6000 X40.123 Y135.724
G1 F1200 X35.549 Y131.149 E46.61854
G0 F6000 X36.114 Y131.149
G1 F1200 X40.123 Y135.158 E46.79598
G0 F6000 X40.123 Y134.592
G1 F1200 X36.68 Y131.149 E46.94838
G0 F6000 X37.246 Y131.149
G1 F1200 X40.123 Y134.027 E47.07574
G0 F6000 X40.123 Y133.461
G1 F1200 X37.811 Y131.149 E47.17807
G0 F6000 X38.377 Y131.149
G1 F1200 X40.123 Y132.895 E47.25535
G0 F6000 X40.123 Y132.33
G1 F1200 X38.943 Y131.149 E47.3076
G0 F6000 X39.508 Y131.149
G1 F1200 X40.123 Y131.764 E47.33483
G0 F6000 X40.473 Y131.764
G1 F2700 E42.08483
;MESH:NONMESH
G0 F300 X40.473 Y131.764 Z0.4
G0 F6000 X40.563 Y131.764
G0 X40.673 Y169.4
;TIME_ELAPSED:87.763362
;LAYER:1
M106 S85
;TYPE:WALL-INNER
;MESH:Retraction.stl
G1 F2700 E47.33483
G1 F1350 X26.873 Y169.4 E47.76673
G1 X26.873 Y130.6 E48.98109
G1 X40.673 Y130.6 E49.413
G1 X40.673 Y169.4 E50.62735
G0 F7500 X41.073 Y169.8
;TYPE:WALL-OUTER
G1 F1350 X26.473 Y169.8 E51.0843
G1 X26.473 Y130.2 E52.32369
G1 X41.073 Y130.2 E52.78064
G1 X41.073 Y169.8 E54.02003
G0 F7500 X40.803 Y169.53
G0 X40.563 Y169.01
G0 X40.283 Y169.01
;TYPE:SKIN
G1 F1350 X27.263 Y169.01 E54.42753
G1 X27.263 Y130.99 E55.61747
G1 X40.283 Y130.99 E56.02497
G1 X40.283 Y169.01 E57.21491
G0 F7500 X39.888 Y168.849
G1 F1350 X40.123 Y168.614 E57.22531
G0 F7500 X40.123 Y168.048
G1 F1350 X39.322 Y168.849 E57.26077
G0 F7500 X38.757 Y168.849
G1 F1350 X40.123 Y167.483 E57.32123
G0 F7500 X40.123 Y166.917
G1 F1350 X38.191 Y168.849 E57.40674
G0 F7500 X37.625 Y168.849
G1 F1350 X40.123 Y166.351 E57.51731
G0 F7500 X40.123 Y165.786
G1 F1350 X37.06 Y168.849 E57.65288
G0 F7500 X36.494 Y168.849
G1 F1350 X40.123 Y165.22 E57.81351
G0 F7500 X40.123 Y164.654
G1 F1350 X35.928 Y168.849 E57.99918
G0 F7500 X35.363 Y168.849
G1 F1350 X40.123 Y164.089 E58.20987
G0 F7500 X40.123 Y163.523
G1 F1350 X34.797 Y168.849 E58.44561
G0 F7500 X34.231 Y168.849
G1 F1350 X40.123 Y162.957 E58.7064
G0 F7500 X40.123 Y162.392
G1 F1350 X33.666 Y168.849 E58.9922
G0 F7500 X33.1 Y168.849
G1 F1350 X40.123 Y161.826 E59.30305
G0 F7500 X40.123 Y161.26
G1 F1350 X32.534 Y168.849 E59.63895
G0 F7500 X31.969 Y168.849
G1 F1350 X40.123 Y160.694 E59.99988
G0 F7500 X40.123 Y160.129
G1 F1350 X31.403 Y168.849 E60.38584
G0 F7500 X30.837 Y168.849
G1 F1350 X40.123 Y159.563 E60.79686
G0 F7500 X40.123 Y158.997
G1 F1350 X30.271 Y168.849 E61.23293
G0 F7500 X29.706 Y168.849
G1 F1350 X40.123 Y158.432 E61.694
G0 F7500 X40.123 Y157.866
G1 F1350 X29.14 Y168.849 E62.18013
G0 F7500 X28.574 Y168.849
G1 F1350 X40.123 Y157.3 E62.69131
G0 F7500 X40.123 Y156.735
G1 F1350 X28.009 Y168.849 E63.22749
G0 F7500 X27.443 Y168.849
G1 F1350 X40.123 Y156.169 E63.78873
G0 F7500 X40.123 Y155.603
G1 F1350 X27.423 Y168.304 E64.35088
G0 F7500 X27.423 Y167.738
G1 F1350 X40.123 Y155.038 E64.913
G0 F7500 X40.123 Y154.472
G1 F1350 X27.423 Y167.172 E65.47513
G0 F7500 X27.423 Y166.607
G1 F1350 X40.123 Y153.906 E66.03727
G0 F7500 X40.123 Y153.341
G1 F1350 X27.423 Y166.041 E66.5994
G0 F7500 X27.423 Y165.475
G1 F1350 X40.123 Y152.775 E67.16152
G0 F7500 X40.123 Y152.209
G1 F1350 X27.423 Y164.91 E67.72367
G0 F7500 X27.423 Y164.344
G1 F1350 X40.123 Y151.643 E68.28582
G0 F7500 X40.123 Y151.078
G1 F1350 X27.423 Y163.778 E68.84794
G0 F7500 X27.423 Y163.212
G1 F1350 X40.123 Y150.512 E69.41006
G0 F7500 X40.123 Y149.946
G1 F1350 X27.423 Y162.647 E69.97221
G0 F7500 X27.423 Y162.081
G1 F1350 X40.123 Y149.381 E70.53433
G0 F7500 X40.123 Y148.815
G1 F1350 X27.423 Y161.515 E71.09646
G0 F7500 X27.423 Y160.95
G1 F1350 X40.123 Y148.249 E71.65861
G0 F7500 X40.123 Y147.684
G1 F1350 X27.423 Y160.384 E72.22073
G0 F7500 X27.423 Y159.818
G1 F1350 X40.123 Y147.118 E72.78285
G0 F7500 X40.123 Y146.552
G1 F1350 X27.423 Y159.253 E73.345
G0 F7500 X27.423 Y158.687
G1 F1350 X40.123 Y145.987 E73.90712
G0 F7500 X40.123 Y145.421
G1 F1350 X27.423 Y158.121 E74.46925
G0 F7500 X27.423 Y157.556
G1 F1350 X40.123 Y144.855 E75.0314
G0 F7500 X40.123 Y144.29
G1 F1350 X27.423 Y156.99 E75.59352
G0 F7500 X27.423 Y156.424
G1 F1350 X40.123 Y143.724 E76.15564
G0 F7500 X40.123 Y143.158
G1 F1350 X27.423 Y155.859 E76.71779
G0 F7500 X27.423 Y155.293
G1 F1350 X40.123 Y142.593 E77.27991
G0 F7500 X40.123 Y142.027
G1 F1350 X27.423 Y154.727 E77.84204
G0 F7500 X27.423 Y154.162
G1 F1350 X40.123 Y141.461 E78.40419
G0 F7500 X40.123 Y140.895
G1 F1350 X27.423 Y153.596 E78.96633
G0 F7500 X27.423 Y153.03
G1 F1350 X40.123 Y140.33 E79.52846
G0 F7500 X40.123 Y139.764
G1 F1350 X27.423 Y152.464 E80.09058
G0 F7500 X27.423 Y151.899
G1 F1350 X40.123 Y139.198 E80.65273
G0 F7500 X40.123 Y138.633
G1 F1350 X27.423 Y151.333 E81.21485
G0 F7500 X27.423 Y150.767
G1 F1350 X40.123 Y138.067 E81.77698
G0 F7500 X40.123 Y137.501
G1 F1350 X27.423 Y150.202 E82.33912
G0 F7500 X27.423 Y149.636
G1 F1350 X40.123 Y136.936 E82.90125
G0 F7500 X40.123 Y136.37
G1 F1350 X27.423 Y149.07 E83.46337
G0 F7500 X27.423 Y148.505
G1 F1350 X40.123 Y135.804 E84.02552
G0 F7500 X40.123 Y135.239
G1 F1350 X27.423 Y147.939 E84.58764
G0 F7500 X27.423 Y147.373
G1 F1350 X40.123 Y134.673 E85.14977
G0 F7500 X40.123 Y134.107
G1 F1350 X27.423 Y146.808 E85.71191
G0 F7500 X27.423 Y146.242
G1 F1350 X40.123 Y133.542 E86.27404
G0 F7500 X40.123 Y132.976
G1 F1350 X27.423 Y145.676 E86.83616
G0 F7500 X27.423 Y145.111
G1 F1350 X40.123 Y132.41 E87.39831
G0 F7500 X40.123 Y131.845
G1 F1350 X27.423 Y144.545 E87.96043
G0 F7500 X27.423 Y143.979
G1 F1350 X40.123 Y131.279 E88.52256
G0 F7500 X39.687 Y131.149
G1 F1350 X27.423 Y143.413 E89.06538
G0 F7500 X27.423 Y142.848
G1 F1350 X39.122 Y131.149 E89.5832
G0 F7500 X38.556 Y131.149
G1 F1350 X27.423 Y142.282 E90.07597
G0 F7500 X27.423 Y141.716
G1 F1350 X37.99 Y131.149 E90.54368
G0 F7500 X37.425 Y131.149
G1 F1350 X27.423 Y141.151 E90.98639
G0 F7500 X27.423 Y140.585
G1 F1350 X36.859 Y131.149 E91.40404
G0 F7500 X36.293 Y131.149
G1 F1350 X27.423 Y140.019 E91.79664
G0 F7500 X27.423 Y139.454
G1 F1350 X35.727 Y131.149 E92.16421
G0 F7500 X35.162 Y131.149
G1 F1350 X27.423 Y138.888 E92.50676
G0 F7500 X27.423 Y138.322
G1 F1350 X34.596 Y131.149 E92.82424
G0 F7500 X34.03 Y131.149
G1 F1350 X27.423 Y137.757 E93.1167
G0 F7500 X27.423 Y137.191
G1 F1350 X33.465 Y131.149 E93.38413
G0 F7500 X32.899 Y131.149
G1 F1350 X27.423 Y136.625 E93.62651
G0 F7500 X27.423 Y136.06
G1 F1350 X32.333 Y131.149 E93.84386
G0 F7500 X31.768 Y131.149
G1 F1350 X27.423 Y135.494 E94.03618
G0 F7500 X27.423 Y134.928
G1 F1350 X31.202 Y131.149 E94.20344
G0 F7500 X30.636 Y131.149
G1 F1350 X27.423 Y134.363 E94.34568
G0 F7500 X27.423 Y133.797
G1 F1350 X30.071 Y131.149 E94.46288
G0 F7500 X29.505 Y131.149
G1 F1350 X27.423 Y133.231 E94.55503
G0 F7500 X27.423 Y132.665
G1 F1350 X28.939 Y131.149 E94.62214
G0 F7500 X28.374 Y131.149
G1 F1350 X27.423 Y132.1 E94.66423
G0 F7500 X27.423 Y131.534
G1 F1350 X27.808 Y131.149 E94.68127
G0 F7500 X27.808 Y130.8
G1 F2700 E89.43127
;MESH:NONMESH
G0 F300 X27.808 Y130.8 Z0.6
G0 F7500 X27.808 Y130.71
G0 X40.491 Y130.782
G0 X40.673 Y169.4
;TIME_ELAPSED:163.439597
;LAYER:2
M106 S170
;TYPE:WALL-INNER
;MESH:Retraction.stl
G1 F2700 E94.68127
G1 F1500 X26.873 Y169.4 E95.11318
G1 X26.873 Y130.6 E96.32753
G1 X40.673 Y130.6 E96.75944
G1 X40.673 Y169.4 E97.9738
G0 F9000 X41.073 Y169.8
;TYPE:WALL-OUTER
G1 F1500 X26.473 Y169.8 E98.43074
G1 X26.473 Y130.2 E99.67014
G1 X41.073 Y130.2 E100.12708
G1 X41.073 Y169.8 E101.36648
G0 F9000 X40.803 Y169.53
G0 X40.563 Y169.01
G0 X40.283 Y169.01
;TYPE:SKIN
G1 F1500 X27.263 Y169.01 E101.77397
G1 X27.263 Y130.99 E102.96392
G1 X40.283 Y130.99 E103.37141
G1 X40.283 Y169.01 E104.56135
G0 F9000 X40.563 Y169.01
G0 X27.992 Y169.29
G0 X27.992 Y168.848
G1 F1500 X27.423 Y168.278 E104.58656
G0 F9000 X27.423 Y167.713
G1 F1500 X28.558 Y168.848 E104.6368
G0 F9000 X29.124 Y168.848
G1 F1500 X27.423 Y167.147 E104.71209
G0 F9000 X27.423 Y166.581
G1 F1500 X29.689 Y168.848 E104.81241
G0 F9000 X30.255 Y168.848
G1 F1500 X27.423 Y166.015 E104.93778
G0 F9000 X27.423 Y165.45
G1 F1500 X30.821 Y168.848 E105.08818
G0 F9000 X31.387 Y168.848
G1 F1500 X27.423 Y164.884 E105.26363
G0 F9000 X27.423 Y164.318
G1 F1500 X31.952 Y168.848 E105.46412
G0 F9000 X32.518 Y168.848
G1 F1500 X27.423 Y163.753 E105.68963
G0 F9000 X27.423 Y163.187
G1 F1500 X33.084 Y168.848 E105.9402
G0 F9000 X33.649 Y168.848
G1 F1500 X27.423 Y162.621 E106.21579
G0 F9000 X27.423 Y162.056
G1 F1500 X34.215 Y168.848 E106.51642
G0 F9000 X34.781 Y168.848
G1 F1500 X27.423 Y161.49 E106.8421
G0 F9000 X27.423 Y160.924
G1 F1500 X35.346 Y168.848 E107.1928
G0 F9000 X35.912 Y168.848
G1 F1500 X27.423 Y160.359 E107.56854
G0 F9000 X27.423 Y159.793
G1 F1500 X36.478 Y168.848 E107.96933
G0 F9000 X37.043 Y168.848
G1 F1500 X27.423 Y159.227 E108.39515
G0 F9000 X27.423 Y158.662
G1 F1500 X37.609 Y168.848 E108.846
G0 F9000 X38.175 Y168.848
G1 F1500 X27.423 Y158.096 E109.32191
G0 F9000 X27.423 Y157.53
G1 F1500 X38.74 Y168.848 E109.82284
G0 F9000 X39.306 Y168.848
G1 F1500 X27.423 Y156.964 E110.34882
G0 F9000 X27.423 Y156.399
G1 F1500 X39.872 Y168.848 E110.89984
G0 F9000 X40.123 Y168.533
G1 F1500 X27.423 Y155.833 E111.46196
G0 F9000 X27.423 Y155.267
G1 F1500 X40.123 Y167.968 E112.02411
G0 F9000 X40.123 Y167.402
G1 F1500 X27.423 Y154.702 E112.58623
